src/lib/packages/icons/src/assets/filled/mobile.svg

<svg width="24" height="24" viewBox="0 0 24 24" fill="none" xmlns="http://www.w3.org/2000/svg">
<path d="M16 3H8C6 3 5 4 5 6V18C5 20 6 21 8 21H16C18 21 19 20 19 18V6C19 4 18 3 16 3ZM12 19C11.448 19 11 18.552 11 18C11 17.448 11.448 17 12 17C12.552 17 13 17.448 13 18C13 18.552 12.552 19 12 19ZM13.5 6.75H10.5C10.086 6.75 9.75 6.414 9.75 6C9.75 5.586 10.086 5.25 10.5 5.25H13.5C13.914 5.25 14.25 5.586 14.25 6C14.25 6.414 13.914 6.75 13.5 6.75Z" fill="currentColor"/>
</svg>

<svg xmlns="http://www.w3.org/2000/svg" width="24" height="24" fill="none"><path fill="currentColor" d="M16 3H8C6 3 5 4 5 6v12c0 2 1 3 3 3h8c2 0 3-1 3-3V6c0-2-1-3-3-3Zm-4 16a1 1 0 1 1 0-2 1 1 0 0 1 0 2Zm1.5-12.25h-3a.75.75 0 0 1 0-1.5h3a.75.75 0 0 1 0 1.5Z"/></svg>
